X:1
T:The SANDS OF KUWAIT
M:6/8
L:1/8
Q:80
C:
S:March
K:HP
| e |: \
A2-A{GAG}A{g}Aae/2f3/2-f2{g}ed | \
{g}G2-G{d}GGd{G}A2-A2{g}((3fed) | \
{g}A2-A{GAG}A{g}Aae/2f3/2-f2{g}ed |
{gdG}d2((3dB{g}def){gef}e2-((3ef{g}fed) | \
{g}A2-A{GAG}A{g}Aae/2f3/2-f2{g}ed | \
{g}G2-G{d}GGd{G}A2-A2{g}((3ABc) |
{Gdc}d2-((3dB{g}def){gef}e2-e{g}A{g}((3fed) | \
{g}d2-d2-d2{gdG}d2-d2{g}((3fed):| [ | \
{ag}a2-((3aA{g}Ada)e/2f3/2f2{g}ed |
{g}G2-G{d}G((3GBd){G}A2((3Af{g}fed) | \
{ag}a2-((3aA{g}Ada)e/2f3/2f2{g}ed | \
{gef}e2-((3eB{g}def){gef}e2-((3ef{g}fed) |
{ag}a2-((3aA{g}Ada)e/2f3/2f2{g}ed | \
{g}G2-G{d}G((3GBd){G}A2A2{g}((3ABc) | \
{Gdc}d2-((3dB{g}def){gef}e2-((3eA{g}fed) |
{g}d2-d2-d2{gdG}d2-d2{g}((3fed)|] [ | \
{ag}a2-((3aA{g}Ada)e/2f3/2-f2{g}ed | \
{g}G2-G{d}G((3GBd){G}A2-((3Af{g}fed) |
{ag}a2-((3aA{g}Ada)e/2f3/2-f2{g}ed | \
{gef}e2-((3eB{g}def){gef}e2-((3ef{g}fed) | \
{g}A2-A{GAG}A{g}Aae/2f3/2-f2{g}ed |
{g}G2-G{d}GGd{G}A2-A2{g}((3ABc) | \
{Gdc}d2-((3dB{g}def){gef}e2-e{g}A{g}((3fed) | \
{g}d2-d2-d2{gdG}d2-d2{g}d2|]
